X:1
T:Title
%%score { 1 | ( 2 3 ) }
L:1/8
Q:1/4=104
M:6/8
K:G
V:1 treble nm="Grand Piano"
V:2 bass 
V:3 bass 
V:1
 [D,B,D]2 G [_B,F]2 E | [D,B,D]2 G [_B,F]2 E | [D,B,D]2 B c2 G | [DB]6 | [CA]2 c [DB]2 [CA] | %5
w: J.~Howard~Entwisle * * *|||||
 [B,G]2 B [CA]2 G | F2 F [^CG]2 E | [CA]6 | [D,B,D]2 G [_B,F]2 E | [D,B,D]2 G [_B,F]2 E | %10
w: |||||
 [D,B,D]2 B c2 d | [=Fd]3 [Ec]3 | [CE]2 [Ec] [DB]2 [CA] | [B,D]2 B A2 G | [CF]2 E D2 A | [B,G]6 | %16
w: ||||||
 G2 A Bcd | e2 d [DB][DA][DG] | [CE]3 [^Dc]3 | [DB]6 | d2 e dBA | G2 A GED | A3 [^CB]3 | %23
w: |||||||
 [DA]3 .A3 | D2 D [B,G]2 [DF] | [DF]3 [CE]3 | [^CE]2 [CE] [CA]2 [CG] | [EG]3 [DF]3 | %28
w: |||||
 [=Fd]2 [Fd] [Ec]2 [Ec] | [DB]2 [DB] [^CA][CG][G,CE] | [B,D]3 [CDA]3 | [G,B,DG]6 |] %32
w: ||||
V:2
 G,,2 B, [G,,^C,]2 _B, | G,,2 B, [G,,^C,]2 _B, | G,,2 D [G,E]2 ^D | G,D,B,, G,,3 | D,2 E D,E,F, | %5
 G,2 D G,,2 B, | [A,,A,]2 D A,,2 ^C | z2 D EDC | G,,2 B, [G,,^C,]2 _B, | G,,2 B, [G,,^C,]2 _B, | %10
 G,,2[K:treble] D [G,E]2 =F | G,,A,,B,, C,3 | .C,2 A,, B,,2 C, | z2 D C2 B, | z2 C C2 C | %15
 G,,B,,D, G,,3 | [G,B,]2[K:treble] [G,CG] [G,DG][G,CG][G,B,G] | %17
 [G,CG]2 [G,B,G][K:bass] [G,,G,][A,,F,][B,,G,] | [C,G,]3 [C,G,]3 | G,D,B,, .G,,3 | %20
 [G,B,G]2 [G,CG] [G,B,G][G,D][G,CD] | [G,B,D]2 [G,CD] [G,B,D][G,C][G,B,] | [E,G,^C]3 [A,,G,]3 | %23
 z3 .C3 | [G,B,]2 [G,B,] [G,,D,]2 [B,,G,] | [C,G,]3 [C,G,]3 | [A,,A,]2 [A,,A,] [A,,E,]2 [A,,A,] | %27
 [^C,A,]3 [D,A,]3 | [B,,F,]2 [B,,G,] [C,G,]2 [C,G,] | [G,,G,]2 [G,,G,] [A,,G,][A,,E,]A,, | %30
 D,3 D,3 | G,,6 |] %32
V:3
 x6 | x6 | x6 | x6 | x6 | x6 | x6 | D,,3 z3 | x6 | x6 | x2[K:treble] x4 | x6 | x6 | D,3 z3 | %14
 D,,3 z3 | x6 | x2[K:treble] x4 | x3[K:bass] x3 | x6 | x6 | x6 | x6 | x6 | [D,F,]6 | x6 | x6 | x6 | %27
 x6 | x6 | x6 | x6 | x6 |] %32

